X:1
T:Mazurka Op. 68 No.4 (posth.)
T:Frédéric Chopin
T:Mazurka
T:Op.68 No.4 (posth.)
T:Public Domain
C:Frédéric Chopin
Z:Public Domain
%%score { ( 1 3 ) | ( 2 4 ) }
L:1/8
Q:1/4=80
M:3/4
K:Ab
V:1 treble nm="Piano" snm="Pno."
V:3 treble 
V:2 bass 
V:4 bass 
V:1
 c2- cddc ||S T=B^A B2 g2 | _B2- BccB | T=A^G A2 f2 | _A2- A_BBA | TG^F G2 d2 | c2- cBAG | %7
 BAFGA=B | c2- cd=Bd | c^A=B_agB | _B2- BccB | B^G=A_gfA | _A2- A_cBA | G2 ^G=A^A=B | %14
 ^c=d^d=e=a^g | ^f=e=d^G=A=B | ^c=d^d=e=a^g | ^f=e=d^G=A=B | ^c2 =B=c=f=e | _e=d_d=EFG | AB=Bcf=e | %21
 _e=d_d=EF{/A}G | TF=E F4!fine! | B4 cG | ACEA=Bc | =d2 egf=B | c4 G2 | =d4 e=B | Tc2 =Bc=de | %29
 x2 =efga | g6 | g2 ^fg=b=a | =d2 =f4 | f2 =ef=ag | c2 _e4 | e2 =degf | B2 _d4 | =A2 c4 | ^G2 =B4 | %39
 c2- cddc!D.S.! || %40
V:2
 z2 [A,CF]2 [A,CF]2 || z2 [G,=DF]2 [G,_DF]2 | z2 [_G,D_F]2 [G,CE]2 | z2 [F,CE]2 [F,_CE]2 | %4
 z2 [F,=B,=D]2 [=E,B,D]2 | z2 [=E,_B,_D]2 [=F,B,=F]2 | z2 [G,B,D]2 [C,B,]2 | z2 F,,2 [F,A,D]2 | %8
 z2 [F,A,C]2 [A,CF]2 | z2 [G,=DF]2 [G,_DF]2 | z2 [G,D_F]2 [_G,DF]2 | z2 [F,CE]2 [F,_CE]2 | %12
 z2 [F,_CE]2 [_F,C__E]2 | z2 [_F,_B,=D]2 [=E,^G,D]2 | =A,,2 [=E,^C]2 z2 | =A,,2 [^F,=D]2 [=E,D]2 | %16
 =A,,2 [=E,^C]2 [E,C]2 | =A,,2 [^F,=D]2 [=E,D]2 | =A,,2 z2 [=F,=C_E]2 | B,,2 [F,_D]2 [C,=E,B,]2 | %20
 F,,2 [C,A,]2 z2 | z2 [D,A,]2 [C,B,]2 | F,,2 [C,A,]2 [_C,A,]2 | E,,2 [E,G,D]2 [E,G,D]2 | %24
 A,,2 [E,A,C]2 [=D,F,C]2 | G,,2 [G,F]2 [G,=DF]2 | C,2 [G,CE]2 [G,CE]2 | G,,2 [G,=B,F]2 [G,F]2 | %28
 C,2 [G,CE]2 [G,CE]2 | A,,2 [A,CF]2 =D,,2 | G,,2 z2 z2 |[K:treble] z2 [=D=A]2 [D^F]2 | z2 =D=EGF | %33
 _D2 [CF]2 [C=E]2 | _E2 C=DFE | _C2 [B,E]2 [B,=D]2 |[K:bass] z2 B,2 B,2 | C2 =A,2 A,2 | %38
 =B,2 _A,2 A,2 | C,2 [A,CF]2 [A,CF]2 || %40
V:3
 x6 || x6 | x6 | x6 | x6 | x6 | z2 =E2 E2 | x6 | x6 | x6 | x6 | x6 | x6 | x6 | x6 | x6 | x6 | x6 | %18
 x6 | x6 | x6 | x6 | x6 | x6 | x6 | x6 | x6 | x6 | x6 | f2 x2 c2- | c=B=e^d=d^c | =c2 c2 c2- | %32
 c2 =Bc=e=d | _B2 B2 B2- | B2 =AB=dc | _A2 A2 A2- | A2 G^F G2- | G2 ^F^E F2- | F2 =F=E F2- | %39
 F2 x2 z2 || %40
V:4
 x6 || x6 | x6 | x6 | x6 | x6 | x6 | x6 | x6 | x6 | x6 | x6 | x6 | x6 | x6 | x6 | x6 | x6 | x6 | %19
 x6 | x6 | x6 | x6 | x6 | x6 | x6 | x6 | x6 | x6 | x6 | x6 |[K:treble] x6 | x2 G,2 G,2 | x6 | %34
 x2 F,2 F,2 | x6 |[K:bass] x2 _F,E, E,2 | E,2 E,=D, D,2 | =D,2 D,2 _D,2 | x6 || %40

